assets/offering/vattenlacka-grey.svg

<svg width="48" height="48" viewBox="0 0 48 48" fill="none" xmlns="http://www.w3.org/2000/svg">
<g opacity="0.3">
<mask id="mask0" mask-type="alpha" maskUnits="userSpaceOnUse" x="0" y="0" width="48" height="48">
<path fill-rule="evenodd" clip-rule="evenodd" d="M0 0H47.9999V47.9998H0V0Z" fill="white"/>
</mask>
<g mask="url(#mask0)">
<path fill-rule="evenodd" clip-rule="evenodd" d="M48 24C48 37.255 37.255 48 24 48C10.745 48 0 37.255 0 24C0 10.745 10.745 0 24 0C37.255 0 48 10.745 48 24" fill="#1BE9B6"/>
</g>
<mask id="mask1" mask-type="alpha" maskUnits="userSpaceOnUse" x="0" y="0" width="48" height="48">
<path fill-rule="evenodd" clip-rule="evenodd" d="M0 48H48V0H0V48Z" fill="white"/>
</mask>
<g mask="url(#mask1)">
<path fill-rule="evenodd" clip-rule="evenodd" d="M20.0669 36.111H21.0669V31.667H20.0669V36.111Z" fill="white"/>
<path fill-rule="evenodd" clip-rule="evenodd" d="M35.2864 24.4756C34.5674 25.9686 33.9634 27.3756 33.9634 28.1576C33.9644 28.8886 34.5584 29.4826 35.2894 29.4826C36.0194 29.4826 36.6144 28.8886 36.6144 28.1576C36.6144 27.4006 36.0644 26.1046 35.2864 24.4756V24.4756ZM35.2894 30.4827C34.0084 30.4827 32.9644 29.4397 32.9634 28.1587C32.9634 27.1027 33.6234 25.5697 34.8414 23.1107L35.2934 22.1997L35.7384 23.1137C36.8714 25.4377 37.6144 27.0437 37.6144 28.1577C37.6144 29.4397 36.5714 30.4827 35.2894 30.4827V30.4827Z" fill="white"/>
<path fill-rule="evenodd" clip-rule="evenodd" d="M35.2666 13.6113C33.8876 13.6113 32.7666 14.7333 32.7666 16.1113C32.7666 17.4893 33.8876 18.6113 35.2666 18.6113C36.6456 18.6113 37.7666 17.4893 37.7666 16.1113C37.7666 14.7333 36.6456 13.6113 35.2666 13.6113V13.6113ZM35.2666 19.6113C33.3366 19.6113 31.7666 18.0413 31.7666 16.1113C31.7666 14.1813 33.3366 12.6113 35.2666 12.6113C37.1966 12.6113 38.7666 14.1813 38.7666 16.1113C38.7666 18.0413 37.1966 19.6113 35.2666 19.6113V19.6113Z" fill="white"/>
<path fill-rule="evenodd" clip-rule="evenodd" d="M20.5664 37.3888C15.4204 37.3888 11.2334 33.2018 11.2334 28.0558V12.8888H18.2334V28.0558C18.2334 29.3428 19.2804 30.3888 20.5664 30.3888C21.8534 30.3888 22.9004 29.3428 22.9004 28.0558V18.1098C22.9004 15.0778 25.3674 12.6108 28.3984 12.6108H35.2664V13.6108H28.3984C25.9184 13.6108 23.9004 15.6288 23.9004 18.1098V28.0558C23.9004 29.8938 22.4044 31.3888 20.5664 31.3888C18.7284 31.3888 17.2334 29.8938 17.2334 28.0558V13.8888H12.2334V28.0558C12.2334 32.6508 15.9714 36.3888 20.5664 36.3888C25.1624 36.3888 28.9004 32.6508 28.9004 28.0558V18.6108H35.2664V19.6108H29.9004V28.0558C29.9004 33.2018 25.7124 37.3888 20.5664 37.3888" fill="white"/>
</g>
</g>
</svg>

<svg width="48" height="48" viewBox="0 0 48 48" fill="none" xmlns="http://www.w3.org/2000/svg"><g opacity=".3"><mask id="a" maskUnits="userSpaceOnUse" x="0" y="0" width="48" height="48"><path fill-rule="evenodd" clip-rule="evenodd" d="M0 0h48v48H0V0z" fill="#fff"/></mask><g mask="url(#a)"><path fill-rule="evenodd" clip-rule="evenodd" d="M48 24c0 13.255-10.745 24-24 24S0 37.255 0 24 10.745 0 24 0s24 10.745 24 24" fill="#1BE9B6"/></g><mask id="b" maskUnits="userSpaceOnUse" x="0" y="0" width="48" height="48"><path fill-rule="evenodd" clip-rule="evenodd" d="M0 48h48V0H0v48z" fill="#fff"/></mask><g mask="url(#b)" fill-rule="evenodd" clip-rule="evenodd" fill="#fff"><path d="M20.067 36.111h1v-4.444h-1v4.444zM35.286 24.476c-.719 1.493-1.323 2.9-1.323 3.682a1.327 1.327 0 002.651 0c0-.757-.55-2.053-1.328-3.682zm.003 6.007a2.33 2.33 0 01-2.326-2.324c0-1.056.66-2.59 1.878-5.048l.452-.911.445.914c1.133 2.324 1.876 3.93 1.876 5.044a2.328 2.328 0 01-2.325 2.325zM35.267 13.611a2.503 2.503 0 00-2.5 2.5c0 1.378 1.12 2.5 2.5 2.5 1.379 0 2.5-1.122 2.5-2.5s-1.121-2.5-2.5-2.5zm0 6c-1.93 0-3.5-1.57-3.5-3.5s1.57-3.5 3.5-3.5 3.5 1.57 3.5 3.5-1.57 3.5-3.5 3.5z"/><path d="M20.566 37.389c-5.146 0-9.333-4.187-9.333-9.333V12.889h7v15.167a2.336 2.336 0 002.333 2.333 2.336 2.336 0 002.334-2.333V18.11a5.505 5.505 0 015.498-5.5h6.868v1h-6.868a4.504 4.504 0 00-4.498 4.5v9.946a3.337 3.337 0 01-3.334 3.333 3.337 3.337 0 01-3.333-3.333V13.889h-5v14.167c0 4.595 3.738 8.333 8.333 8.333 4.596 0 8.334-3.738 8.334-8.333V18.61h6.366v1H29.9v8.445c0 5.146-4.188 9.333-9.334 9.333"/></g></g></svg>
